X:88
%%topspace -50
T:Wendy's Silver Jig
M:6/8
L:1/8
K:G
d | "G"gfg d2B | "C"cde "G"d2D | "C"EFG "G"DGB | "Am"c2B "D"A2d | 
"G"gfg d2B | "C"cde "G"d2B | "D"c2A DEF | "G"G3- G2 :|
|: D | "C"EGc edc | "G"Bcd D3 | "D"cBc A3 | "G"B_B=B GF=F | 
"C"EGc edc | "G"Bcd D2B | "D"c2A DEF | "G"G3- G2 :|]

